assets/icons/next_button.svg

<svg width="168" height="56" viewBox="0 0 168 56" fill="none" xmlns="http://www.w3.org/2000/svg">
<rect width="168" height="56" rx="28" fill="url(#paint0_linear_6608_3512)"/>
<rect x="1" y="1" width="166" height="54" rx="27" stroke="url(#paint1_linear_6608_3512)" stroke-width="2"/>
<rect x="4.5" y="4.5" width="159" height="47" rx="23.5" fill="url(#paint2_linear_6608_3512)" stroke="#320033"/>
<g style="mix-blend-mode:overlay">
<rect x="11.4546" y="7" width="145.091" height="28" rx="14" fill="url(#paint3_linear_6608_3512)"/>
</g>
<path d="M76.8388 22.3636V34H74.4524L69.8217 27.2841H69.7479V34H66.9354V22.3636H69.3558L73.9354 29.0682H74.032V22.3636H76.8388ZM82.6868 34.1648C81.7739 34.1648 80.986 33.9848 80.3232 33.625C79.6641 33.2614 79.1565 32.7443 78.8004 32.0739C78.4482 31.3996 78.272 30.5985 78.272 29.6705C78.272 28.7689 78.45 27.9811 78.8061 27.3068C79.1622 26.6288 79.6641 26.1023 80.3118 25.7273C80.9595 25.3485 81.7228 25.1591 82.6016 25.1591C83.2228 25.1591 83.791 25.2557 84.3061 25.4489C84.8213 25.642 85.2663 25.928 85.6413 26.3068C86.0163 26.6856 86.308 27.1534 86.5163 27.7102C86.7247 28.2633 86.8288 28.8977 86.8288 29.6136V30.3068H79.2436V28.6932H84.2436C84.2398 28.3977 84.1697 28.1345 84.0334 27.9034C83.897 27.6723 83.7095 27.4924 83.4709 27.3636C83.236 27.2311 82.9652 27.1648 82.6584 27.1648C82.3478 27.1648 82.0694 27.2348 81.8232 27.375C81.5769 27.5114 81.3819 27.6989 81.2379 27.9375C81.094 28.1723 81.0182 28.4394 81.0107 28.7386V30.3807C81.0107 30.7367 81.0807 31.0492 81.2209 31.3182C81.361 31.5833 81.5599 31.7898 81.8175 31.9375C82.075 32.0852 82.3819 32.1591 82.7379 32.1591C82.9841 32.1591 83.2076 32.125 83.4084 32.0568C83.6091 31.9886 83.7815 31.8883 83.9254 31.7557C84.0694 31.6231 84.1773 31.4602 84.2493 31.267L86.8004 31.3409C86.6944 31.9129 86.4614 32.411 86.1016 32.8352C85.7455 33.2557 85.2777 33.5833 84.6982 33.8182C84.1186 34.0492 83.4482 34.1648 82.6868 34.1648ZM90.4865 25.2727L91.924 28.1477L93.4126 25.2727H96.2138L93.7763 29.6364L96.3047 34H93.5263L91.924 31.1023L90.3615 34H87.5433L90.0774 29.6364L87.6683 25.2727H90.4865ZM102.408 25.2727V27.3182H96.9027V25.2727H102.408ZM98.0561 23.1818H100.835V31.2557C100.835 31.4261 100.861 31.5644 100.914 31.6705C100.971 31.7727 101.052 31.8466 101.158 31.892C101.264 31.9337 101.391 31.9545 101.539 31.9545C101.645 31.9545 101.757 31.9451 101.874 31.9261C101.996 31.9034 102.086 31.8845 102.147 31.8693L102.567 33.875C102.435 33.9129 102.247 33.9602 102.005 34.017C101.766 34.0739 101.48 34.1098 101.147 34.125C100.496 34.1553 99.9368 34.0795 99.4709 33.8977C99.0088 33.7121 98.6546 33.4242 98.4084 33.0341C98.166 32.6439 98.0485 32.1534 98.0561 31.5625V23.1818Z" fill="white"/>
<defs>
<linearGradient id="paint0_linear_6608_3512" x1="84" y1="0" x2="84" y2="56" gradientUnits="userSpaceOnUse">
<stop stop-color="#FFEB3C"/>
<stop offset="0.135" stop-color="#FF730E"/>
<stop offset="0.425" stop-color="#B3330A"/>
<stop offset="0.66" stop-color="#FFE600"/>
<stop offset="1" stop-color="#FF730E"/>
</linearGradient>
<linearGradient id="paint1_linear_6608_3512" x1="84" y1="0" x2="84" y2="56" gradientUnits="userSpaceOnUse">
<stop stop-color="#FF730E"/>
<stop offset="0.295" stop-color="#C03900"/>
<stop offset="0.525" stop-color="#DBFF00"/>
<stop offset="0.97" stop-color="#CE7C00"/>
</linearGradient>
<linearGradient id="paint2_linear_6608_3512" x1="84" y1="4" x2="84" y2="52" gradientUnits="userSpaceOnUse">
<stop stop-color="#277DFF"/>
<stop offset="0.395" stop-color="#154CB7"/>
<stop offset="0.78" stop-color="#061072"/>
<stop offset="1" stop-color="#02408A"/>
</linearGradient>
<linearGradient id="paint3_linear_6608_3512" x1="84" y1="7" x2="84" y2="35" gradientUnits="userSpaceOnUse">
<stop stop-color="white"/>
<stop offset="1" stop-color="white" stop-opacity="0"/>
</linearGradient>
</defs>
</svg>

<svg xmlns="http://www.w3.org/2000/svg" width="168" height="56" fill="none" xmlns:v="https://vecta.io/nano"><rect width="168" height="56" rx="28" fill="url(#A)"/><rect x="1" y="1" width="166" height="54" rx="27" stroke="url(#B)" stroke-width="2"/><rect x="4.5" y="4.5" width="159" height="47" rx="23.5" fill="url(#C)" stroke="#320033"/><rect x="11.455" y="7" width="145.091" height="28" rx="14" fill="url(#D)" style="mix-blend-mode:overlay"/><path d="M76.839 22.364V34h-2.386l-4.631-6.716h-.074V34h-2.812V22.364h2.42l4.58 6.705h.097v-6.705h2.807zm5.848 11.801c-.913 0-1.701-.18-2.364-.54s-1.167-.881-1.523-1.551-.528-1.475-.528-2.403c0-.902.178-1.689.534-2.364s.858-1.204 1.506-1.579 1.411-.568 2.29-.568c.621 0 1.189.097 1.704.29a3.66 3.66 0 0 1 1.335.858 3.91 3.91 0 0 1 .875 1.403c.208.553.313 1.188.313 1.903v.693h-7.585v-1.614h5c-.004-.296-.074-.559-.21-.79a1.43 1.43 0 0 0-.562-.54c-.235-.133-.506-.199-.812-.199s-.589.07-.835.21-.441.324-.585.563a1.58 1.58 0 0 0-.227.801v1.642a2 2 0 0 0 .21.938c.14.265.339.472.597.619s.564.222.92.222c.246 0 .47-.034.671-.102a1.43 1.43 0 0 0 .517-.301c.144-.133.252-.296.324-.489l2.551.074c-.106.572-.339 1.07-.699 1.494s-.824.748-1.403.983-1.25.347-2.011.347zm7.8-8.892l1.438 2.875 1.489-2.875h2.801l-2.437 4.364L96.305 34h-2.778l-1.602-2.898L90.362 34h-2.818l2.534-4.364-2.409-4.364h2.818zm11.921 0v2.046h-5.505v-2.046h5.505zm-4.352-2.091h2.779v8.074c0 .17.026.309.079.415s.138.176.244.221a1.04 1.04 0 0 0 .381.063c.106 0 .218-.009.335-.028l.273-.057.42 2.006-.562.142c-.239.057-.525.093-.858.108-.651.03-1.21-.045-1.676-.227s-.816-.474-1.062-.864-.36-.881-.352-1.472v-8.381z" fill="#fff"/><defs><linearGradient id="A" x1="84" y1="0" x2="84" y2="56" gradientUnits="userSpaceOnUse"><stop stop-color="#ffeb3c"/><stop offset=".135" stop-color="#ff730e"/><stop offset=".425" stop-color="#b3330a"/><stop offset=".66" stop-color="#ffe600"/><stop offset="1" stop-color="#ff730e"/></linearGradient><linearGradient id="B" x1="84" y1="0" x2="84" y2="56" gradientUnits="userSpaceOnUse"><stop stop-color="#ff730e"/><stop offset=".295" stop-color="#c03900"/><stop offset=".525" stop-color="#dbff00"/><stop offset=".97" stop-color="#ce7c00"/></linearGradient><linearGradient id="C" x1="84" y1="4" x2="84" y2="52" gradientUnits="userSpaceOnUse"><stop stop-color="#277dff"/><stop offset=".395" stop-color="#154cb7"/><stop offset=".78" stop-color="#061072"/><stop offset="1" stop-color="#02408a"/></linearGradient><linearGradient id="D" x1="84" y1="7" x2="84" y2="35" gradientUnits="userSpaceOnUse"><stop stop-color="#fff"/><stop offset="1" stop-color="#fff" stop-opacity="0"/></linearGradient></defs></svg>
